packages/sources/assets/src/assets/flag-gt.svg

<svg width="28" height="20" viewBox="0 0 28 20" fill="none" xmlns="http://www.w3.org/2000/svg">
<rect x="0.25" y="0.25" width="27.5" height="19.5" rx="1.75" fill="white" stroke="#F5F5F5" stroke-width="0.5"/>
<mask id="mask0_503_4171" style="mask-type:alpha" maskUnits="userSpaceOnUse" x="0" y="0" width="28" height="20">
<rect x="0.25" y="0.25" width="27.5" height="19.5" rx="1.75" fill="white" stroke="white" stroke-width="0.5"/>
</mask>
<g mask="url(#mask0_503_4171)">
<rect x="18.6665" width="9.33333" height="20" fill="#63AEE3"/>
<path fill-rule="evenodd" clip-rule="evenodd" d="M0 20H9.33333V0H0V20Z" fill="#63AEE3"/>
<path d="M12.0002 9.33331C12.0002 8.96512 11.7017 8.66665 11.3335 8.66665C10.9653 8.66665 10.6668 8.96512 10.6668 9.33331H12.0002ZM12.3292 12.2181C12.6477 12.4029 13.0556 12.2945 13.2404 11.976C13.4252 11.6576 13.3168 11.2496 12.9984 11.0648L12.3292 12.2181ZM15.0758 11.0198C14.7656 11.2182 14.675 11.6305 14.8734 11.9406C15.0718 12.2508 15.484 12.3414 15.7942 12.1431L15.0758 11.0198ZM17.3335 9.33331C17.3335 8.96512 17.035 8.66665 16.6668 8.66665C16.2986 8.66665 16.0002 8.96512 16.0002 9.33331H17.3335ZM10.6668 9.33331C10.6668 10.5664 11.3367 11.6422 12.3292 12.2181L12.9984 11.0648C12.4001 10.7177 12.0002 10.0718 12.0002 9.33331H10.6668ZM15.7942 12.1431C16.7184 11.552 17.3335 10.5147 17.3335 9.33331H16.0002C16.0002 10.041 15.6331 10.6634 15.0758 11.0198L15.7942 12.1431Z" fill="#628A40"/>
<path fill-rule="evenodd" clip-rule="evenodd" d="M13.9998 10.6667C14.7362 10.6667 15.3332 10.0697 15.3332 9.33333C15.3332 8.59695 14.7362 8 13.9998 8C13.2635 8 12.6665 8.59695 12.6665 9.33333C12.6665 10.0697 13.2635 10.6667 13.9998 10.6667Z" fill="#DCC26D"/>
</g>
</svg>

<svg width="28" height="20" fill="none" xmlns="http://www.w3.org/2000/svg"><rect x=".25" y=".25" width="27.5" height="19.5" rx="1.75" fill="#fff" stroke="#F5F5F5" stroke-width=".5"/><mask id="a" style="mask-type:alpha" maskUnits="userSpaceOnUse" x="0" y="0" width="28" height="20"><rect x=".25" y=".25" width="27.5" height="19.5" rx="1.75" fill="#fff" stroke="#fff" stroke-width=".5"/></mask><g mask="url(#a)"><path fill="#63AEE3" d="M18.666 0h9.333v20h-9.333z"/><path fill-rule="evenodd" clip-rule="evenodd" d="M0 20h9.333V0H0v20Z" fill="#63AEE3"/><path d="M12 9.333a.667.667 0 0 0-1.333 0H12Zm.33 2.885a.667.667 0 1 0 .668-1.153l-.669 1.153Zm2.746-1.198a.667.667 0 1 0 .718 1.123l-.718-1.123Zm2.258-1.687a.667.667 0 0 0-1.334 0h1.334Zm-6.667 0c0 1.233.67 2.31 1.662 2.885l.67-1.153A1.999 1.999 0 0 1 12 9.333h-1.333Zm5.127 2.81a3.331 3.331 0 0 0 1.54-2.81H16a2 2 0 0 1-.924 1.687l.718 1.123Z" fill="#628A40"/><path fill-rule="evenodd" clip-rule="evenodd" d="M14 10.667A1.333 1.333 0 1 0 14 8a1.333 1.333 0 0 0 0 2.667Z" fill="#DCC26D"/></g></svg>
